packages/templates/gallery/colorful-123.svg

<svg class="typst-doc" viewBox="0 0 288 150" width="288pt" height="150pt" xmlns="http://www.w3.org/2000/svg" xmlns:xlink="http://www.w3.org/1999/xlink" xmlns:h5="http://www.w3.org/1999/xhtml">
    <path class="typst-shape" fill="#ffffff" fill-rule="nonzero" d="M 0 0v 150 h 288 v -150 Z "/>
    <g>
        <g class="typst-group" transform="matrix(1 0 0 1 99 4)">
            <g>
                <g class="typst-group">
                    <g>
                        <path class="typst-shape" fill="#eeeeee" fill-rule="nonzero" transform="matrix(1 0 0 1 13.200000000000001 13.599999999999998)" d="M 0 0v 92.6 h 3.6 v -92.6 Z "/>
                        <g class="typst-group" transform="matrix(1 0 0 1 4.920000000000001 13.599999999999998)">
                            <g>
                                <path class="typst-shape" fill="#e6e6e6" fill-rule="nonzero" stroke="#000000" stroke-width="0.5" stroke-linecap="butt" stroke-linejoin="miter" stroke-miterlimit="4" d="M 0 0m 10.08 0 l 10.08 7.2 l -10.08 7.2 l -10.08 -7.2 Z "/>
                            </g>
                        </g>
                        <a transform="matrix(1 0 0 1 4.920000000000001 13.599999999999998)" href="bead://heaven-col2-active0" xlink:href="bead://heaven-col2-active0">
                            <rect width="20.159999999999997" height="14.4" fill="transparent" stroke="none"/>
                        </a>
                        <g class="typst-group" transform="matrix(1 0 0 1 4.920000000000001 39.4)">
                            <g>
                                <path class="typst-shape" fill="#f18f01" fill-rule="nonzero" stroke="#000000" stroke-width="0.5" stroke-linecap="butt" stroke-linejoin="miter" stroke-miterlimit="4" d="M 0 0m 10.08 0 l 10.08 7.2 l -10.08 7.2 l -10.08 -7.2 Z "/>
                            </g>
                        </g>
                        <a transform="matrix(1 0 0 1 4.920000000000001 39.4)" href="bead://earth-col2-pos0-active1" xlink:href="bead://earth-col2-pos0-active1">
                            <rect width="20.159999999999997" height="14.4" fill="transparent" stroke="none"/>
                        </a>
                        <g class="typst-group" transform="matrix(1 0 0 1 4.920000000000001 61.800000000000004)">
                            <g>
                                <path class="typst-shape" fill="#e6e6e6" fill-rule="nonzero" stroke="#000000" stroke-width="0.5" stroke-linecap="butt" stroke-linejoin="miter" stroke-miterlimit="4" d="M 0 0m 10.08 0 l 10.08 7.2 l -10.08 7.2 l -10.08 -7.2 Z "/>
                            </g>
                        </g>
                        <a transform="matrix(1 0 0 1 4.920000000000001 61.800000000000004)" href="bead://earth-col2-pos1-active0" xlink:href="bead://earth-col2-pos1-active0">
                            <rect width="20.159999999999997" height="14.4" fill="transparent" stroke="none"/>
                        </a>
                        <g class="typst-group" transform="matrix(1 0 0 1 4.920000000000001 76.8)">
                            <g>
                                <path class="typst-shape" fill="#e6e6e6" fill-rule="nonzero" stroke="#000000" stroke-width="0.5" stroke-linecap="butt" stroke-linejoin="miter" stroke-miterlimit="4" d="M 0 0m 10.08 0 l 10.08 7.2 l -10.08 7.2 l -10.08 -7.2 Z "/>
                            </g>
                        </g>
                        <a transform="matrix(1 0 0 1 4.920000000000001 76.8)" href="bead://earth-col2-pos2-active0" xlink:href="bead://earth-col2-pos2-active0">
                            <rect width="20.159999999999997" height="14.4" fill="transparent" stroke="none"/>
                        </a>
                        <g class="typst-group" transform="matrix(1 0 0 1 4.920000000000001 91.8)">
                            <g>
                                <path class="typst-shape" fill="#e6e6e6" fill-rule="nonzero" stroke="#000000" stroke-width="0.5" stroke-linecap="butt" stroke-linejoin="miter" stroke-miterlimit="4" d="M 0 0m 10.08 0 l 10.08 7.2 l -10.08 7.2 l -10.08 -7.2 Z "/>
                            </g>
                        </g>
                        <a transform="matrix(1 0 0 1 4.920000000000001 91.8)" href="bead://earth-col2-pos3-active0" xlink:href="bead://earth-col2-pos3-active0">
                            <rect width="20.159999999999997" height="14.4" fill="transparent" stroke="none"/>
                        </a>
                        <path class="typst-shape" fill="#eeeeee" fill-rule="nonzero" transform="matrix(1 0 0 1 43.199999999999996 13.599999999999998)" d="M 0 0v 92.6 h 3.6 v -92.6 Z "/>
                        <g class="typst-group" transform="matrix(1 0 0 1 34.92 13.599999999999998)">
                            <g>
                                <path class="typst-shape" fill="#e6e6e6" fill-rule="nonzero" stroke="#000000" stroke-width="0.5" stroke-linecap="butt" stroke-linejoin="miter" stroke-miterlimit="4" d="M 0 0m 10.08 0 l 10.08 7.2 l -10.08 7.2 l -10.08 -7.2 Z "/>
                            </g>
                        </g>
                        <a transform="matrix(1 0 0 1 34.92 13.599999999999998)" href="bead://heaven-col1-active0" xlink:href="bead://heaven-col1-active0">
                            <rect width="20.159999999999997" height="14.4" fill="transparent" stroke="none"/>
                        </a>
                        <g class="typst-group" transform="matrix(1 0 0 1 34.92 39.4)">
                            <g>
                                <path class="typst-shape" fill="#a23b72" fill-rule="nonzero" stroke="#000000" stroke-width="0.5" stroke-linecap="butt" stroke-linejoin="miter" stroke-miterlimit="4" d="M 0 0m 10.08 0 l 10.08 7.2 l -10.08 7.2 l -10.08 -7.2 Z "/>
                            </g>
                        </g>
                        <a transform="matrix(1 0 0 1 34.92 39.4)" href="bead://earth-col1-pos0-active1" xlink:href="bead://earth-col1-pos0-active1">
                            <rect width="20.159999999999997" height="14.4" fill="transparent" stroke="none"/>
                        </a>
                        <g class="typst-group" transform="matrix(1 0 0 1 34.92 54.4)">
                            <g>
                                <path class="typst-shape" fill="#a23b72" fill-rule="nonzero" stroke="#000000" stroke-width="0.5" stroke-linecap="butt" stroke-linejoin="miter" stroke-miterlimit="4" d="M 0 0m 10.08 0 l 10.08 7.2 l -10.08 7.2 l -10.08 -7.2 Z "/>
                            </g>
                        </g>
                        <a transform="matrix(1 0 0 1 34.92 54.4)" href="bead://earth-col1-pos1-active1" xlink:href="bead://earth-col1-pos1-active1">
                            <rect width="20.159999999999997" height="14.4" fill="transparent" stroke="none"/>
                        </a>
                        <g class="typst-group" transform="matrix(1 0 0 1 34.92 76.8)">
                            <g>
                                <path class="typst-shape" fill="#e6e6e6" fill-rule="nonzero" stroke="#000000" stroke-width="0.5" stroke-linecap="butt" stroke-linejoin="miter" stroke-miterlimit="4" d="M 0 0m 10.08 0 l 10.08 7.2 l -10.08 7.2 l -10.08 -7.2 Z "/>
                            </g>
                        </g>
                        <a transform="matrix(1 0 0 1 34.92 76.8)" href="bead://earth-col1-pos2-active0" xlink:href="bead://earth-col1-pos2-active0">
                            <rect width="20.159999999999997" height="14.4" fill="transparent" stroke="none"/>
                        </a>
                        <g class="typst-group" transform="matrix(1 0 0 1 34.92 91.8)">
                            <g>
                                <path class="typst-shape" fill="#e6e6e6" fill-rule="nonzero" stroke="#000000" stroke-width="0.5" stroke-linecap="butt" stroke-linejoin="miter" stroke-miterlimit="4" d="M 0 0m 10.08 0 l 10.08 7.2 l -10.08 7.2 l -10.08 -7.2 Z "/>
                            </g>
                        </g>
                        <a transform="matrix(1 0 0 1 34.92 91.8)" href="bead://earth-col1-pos3-active0" xlink:href="bead://earth-col1-pos3-active0">
                            <rect width="20.159999999999997" height="14.4" fill="transparent" stroke="none"/>
                        </a>
                        <path class="typst-shape" fill="#eeeeee" fill-rule="nonzero" transform="matrix(1 0 0 1 73.2 13.599999999999998)" d="M 0 0v 92.6 h 3.6 v -92.6 Z "/>
                        <g class="typst-group" transform="matrix(1 0 0 1 64.92 13.599999999999998)">
                            <g>
                                <path class="typst-shape" fill="#e6e6e6" fill-rule="nonzero" stroke="#000000" stroke-width="0.5" stroke-linecap="butt" stroke-linejoin="miter" stroke-miterlimit="4" d="M 0 0m 10.08 0 l 10.08 7.2 l -10.08 7.2 l -10.08 -7.2 Z "/>
                            </g>
                        </g>
                        <a transform="matrix(1 0 0 1 64.92 13.599999999999998)" href="bead://heaven-col0-active0" xlink:href="bead://heaven-col0-active0">
                            <rect width="20.159999999999997" height="14.4" fill="transparent" stroke="none"/>
                        </a>
                        <g class="typst-group" transform="matrix(1 0 0 1 64.92 39.4)">
                            <g>
                                <path class="typst-shape" fill="#2e86ab" fill-rule="nonzero" stroke="#000000" stroke-width="0.5" stroke-linecap="butt" stroke-linejoin="miter" stroke-miterlimit="4" d="M 0 0m 10.08 0 l 10.08 7.2 l -10.08 7.2 l -10.08 -7.2 Z "/>
                            </g>
                        </g>
                        <a transform="matrix(1 0 0 1 64.92 39.4)" href="bead://earth-col0-pos0-active1" xlink:href="bead://earth-col0-pos0-active1">
                            <rect width="20.159999999999997" height="14.4" fill="transparent" stroke="none"/>
                        </a>
                        <g class="typst-group" transform="matrix(1 0 0 1 64.92 54.4)">
                            <g>
                                <path class="typst-shape" fill="#2e86ab" fill-rule="nonzero" stroke="#000000" stroke-width="0.5" stroke-linecap="butt" stroke-linejoin="miter" stroke-miterlimit="4" d="M 0 0m 10.08 0 l 10.08 7.2 l -10.08 7.2 l -10.08 -7.2 Z "/>
                            </g>
                        </g>
                        <a transform="matrix(1 0 0 1 64.92 54.4)" href="bead://earth-col0-pos1-active1" xlink:href="bead://earth-col0-pos1-active1">
                            <rect width="20.159999999999997" height="14.4" fill="transparent" stroke="none"/>
                        </a>
                        <g class="typst-group" transform="matrix(1 0 0 1 64.92 69.4)">
                            <g>
                                <path class="typst-shape" fill="#2e86ab" fill-rule="nonzero" stroke="#000000" stroke-width="0.5" stroke-linecap="butt" stroke-linejoin="miter" stroke-miterlimit="4" d="M 0 0m 10.08 0 l 10.08 7.2 l -10.08 7.2 l -10.08 -7.2 Z "/>
                            </g>
                        </g>
                        <a transform="matrix(1 0 0 1 64.92 69.4)" href="bead://earth-col0-pos2-active1" xlink:href="bead://earth-col0-pos2-active1">
                            <rect width="20.159999999999997" height="14.4" fill="transparent" stroke="none"/>
                        </a>
                        <g class="typst-group" transform="matrix(1 0 0 1 64.92 91.8)">
                            <g>
                                <path class="typst-shape" fill="#e6e6e6" fill-rule="nonzero" stroke="#000000" stroke-width="0.5" stroke-linecap="butt" stroke-linejoin="miter" stroke-miterlimit="4" d="M 0 0m 10.08 0 l 10.08 7.2 l -10.08 7.2 l -10.08 -7.2 Z "/>
                            </g>
                        </g>
                        <a transform="matrix(1 0 0 1 64.92 91.8)" href="bead://earth-col0-pos3-active0" xlink:href="bead://earth-col0-pos3-active0">
                            <rect width="20.159999999999997" height="14.4" fill="transparent" stroke="none"/>
                        </a>
                        <path class="typst-shape" fill="#000000" fill-rule="nonzero" transform="matrix(1 0 0 1 0 36)" d="M 0 0v 2.4 h 90 v -2.4 Z "/>
                    </g>
                </g>
            </g>
        </g>
    </g>
</svg>

<svg class="typst-doc" viewBox="0 0 288 150" width="288pt" height="150pt" xmlns="http://www.w3.org/2000/svg" xmlns:xlink="http://www.w3.org/1999/xlink" xmlns:h5="http://www.w3.org/1999/xhtml">
    <path class="typst-shape" fill="#ffffff" fill-rule="nonzero" d="M 0 0 L 0 150 L 288 150 L 288 0 Z "/>
    <g>
        <g transform="translate(99 4)">
            <g class="typst-group">
                <g>
                    <g transform="translate(0 0)">
                        <g class="typst-group">
                            <g>
                                <g transform="translate(13.200000000000001 13.599999999999998)">
                                    <path class="typst-shape" fill="#eeeeee" fill-rule="nonzero" d="M 0 0 L 0 92.6 L 3.6 92.6 L 3.6 0 Z "/>
                                </g>
                                <g transform="translate(4.920000000000001 13.599999999999998)">
                                    <g class="typst-group">
                                        <g>
                                            <g transform="translate(0 0)">
                                                <path class="typst-shape" fill="#e6e6e6" fill-rule="nonzero" stroke="#000000" stroke-width="0.5" stroke-linecap="butt" stroke-linejoin="miter" stroke-miterlimit="4" d="M 10.08 0 L 20.16 7.2 L 10.08 14.4 L 0 7.2 Z "/>
                                            </g>
                                        </g>
                                    </g>
                                </g>
                                <g transform="translate(4.920000000000001 39.4)">
                                    <g class="typst-group">
                                        <g>
                                            <g transform="translate(0 0)">
                                                <path class="typst-shape" fill="#f18f01" fill-rule="nonzero" stroke="#000000" stroke-width="0.5" stroke-linecap="butt" stroke-linejoin="miter" stroke-miterlimit="4" d="M 10.08 0 L 20.16 7.2 L 10.08 14.4 L 0 7.2 Z "/>
                                            </g>
                                        </g>
                                    </g>
                                </g>
                                <g transform="translate(4.920000000000001 61.800000000000004)">
                                    <g class="typst-group">
                                        <g>
                                            <g transform="translate(0 0)">
                                                <path class="typst-shape" fill="#e6e6e6" fill-rule="nonzero" stroke="#000000" stroke-width="0.5" stroke-linecap="butt" stroke-linejoin="miter" stroke-miterlimit="4" d="M 10.08 0 L 20.16 7.2 L 10.08 14.4 L 0 7.2 Z "/>
                                            </g>
                                        </g>
                                    </g>
                                </g>
                                <g transform="translate(4.920000000000001 76.8)">
                                    <g class="typst-group">
                                        <g>
                                            <g transform="translate(0 0)">
                                                <path class="typst-shape" fill="#e6e6e6" fill-rule="nonzero" stroke="#000000" stroke-width="0.5" stroke-linecap="butt" stroke-linejoin="miter" stroke-miterlimit="4" d="M 10.08 0 L 20.16 7.2 L 10.08 14.4 L 0 7.2 Z "/>
                                            </g>
                                        </g>
                                    </g>
                                </g>
                                <g transform="translate(4.920000000000001 91.8)">
                                    <g class="typst-group">
                                        <g>
                                            <g transform="translate(0 0)">
                                                <path class="typst-shape" fill="#e6e6e6" fill-rule="nonzero" stroke="#000000" stroke-width="0.5" stroke-linecap="butt" stroke-linejoin="miter" stroke-miterlimit="4" d="M 10.08 0 L 20.16 7.2 L 10.08 14.4 L 0 7.2 Z "/>
                                            </g>
                                        </g>
                                    </g>
                                </g>
                                <g transform="translate(43.199999999999996 13.599999999999998)">
                                    <path class="typst-shape" fill="#eeeeee" fill-rule="nonzero" d="M 0 0 L 0 92.6 L 3.6 92.6 L 3.6 0 Z "/>
                                </g>
                                <g transform="translate(34.92 13.599999999999998)">
                                    <g class="typst-group">
                                        <g>
                                            <g transform="translate(0 0)">
                                                <path class="typst-shape" fill="#e6e6e6" fill-rule="nonzero" stroke="#000000" stroke-width="0.5" stroke-linecap="butt" stroke-linejoin="miter" stroke-miterlimit="4" d="M 10.08 0 L 20.16 7.2 L 10.08 14.4 L 0 7.2 Z "/>
                                            </g>
                                        </g>
                                    </g>
                                </g>
                                <g transform="translate(34.92 39.4)">
                                    <g class="typst-group">
                                        <g>
                                            <g transform="translate(0 0)">
                                                <path class="typst-shape" fill="#a23b72" fill-rule="nonzero" stroke="#000000" stroke-width="0.5" stroke-linecap="butt" stroke-linejoin="miter" stroke-miterlimit="4" d="M 10.08 0 L 20.16 7.2 L 10.08 14.4 L 0 7.2 Z "/>
                                            </g>
                                        </g>
                                    </g>
                                </g>
                                <g transform="translate(34.92 54.4)">
                                    <g class="typst-group">
                                        <g>
                                            <g transform="translate(0 0)">
                                                <path class="typst-shape" fill="#a23b72" fill-rule="nonzero" stroke="#000000" stroke-width="0.5" stroke-linecap="butt" stroke-linejoin="miter" stroke-miterlimit="4" d="M 10.08 0 L 20.16 7.2 L 10.08 14.4 L 0 7.2 Z "/>
                                            </g>
                                        </g>
                                    </g>
                                </g>
                                <g transform="translate(34.92 76.8)">
                                    <g class="typst-group">
                                        <g>
                                            <g transform="translate(0 0)">
                                                <path class="typst-shape" fill="#e6e6e6" fill-rule="nonzero" stroke="#000000" stroke-width="0.5" stroke-linecap="butt" stroke-linejoin="miter" stroke-miterlimit="4" d="M 10.08 0 L 20.16 7.2 L 10.08 14.4 L 0 7.2 Z "/>
                                            </g>
                                        </g>
                                    </g>
                                </g>
                                <g transform="translate(34.92 91.8)">
                                    <g class="typst-group">
                                        <g>
                                            <g transform="translate(0 0)">
                                                <path class="typst-shape" fill="#e6e6e6" fill-rule="nonzero" stroke="#000000" stroke-width="0.5" stroke-linecap="butt" stroke-linejoin="miter" stroke-miterlimit="4" d="M 10.08 0 L 20.16 7.2 L 10.08 14.4 L 0 7.2 Z "/>
                                            </g>
                                        </g>
                                    </g>
                                </g>
                                <g transform="translate(73.2 13.599999999999998)">
                                    <path class="typst-shape" fill="#eeeeee" fill-rule="nonzero" d="M 0 0 L 0 92.6 L 3.6 92.6 L 3.6 0 Z "/>
                                </g>
                                <g transform="translate(64.92 13.599999999999998)">
                                    <g class="typst-group">
                                        <g>
                                            <g transform="translate(0 0)">
                                                <path class="typst-shape" fill="#e6e6e6" fill-rule="nonzero" stroke="#000000" stroke-width="0.5" stroke-linecap="butt" stroke-linejoin="miter" stroke-miterlimit="4" d="M 10.08 0 L 20.16 7.2 L 10.08 14.4 L 0 7.2 Z "/>
                                            </g>
                                        </g>
                                    </g>
                                </g>
                                <g transform="translate(64.92 39.4)">
                                    <g class="typst-group">
                                        <g>
                                            <g transform="translate(0 0)">
                                                <path class="typst-shape" fill="#2e86ab" fill-rule="nonzero" stroke="#000000" stroke-width="0.5" stroke-linecap="butt" stroke-linejoin="miter" stroke-miterlimit="4" d="M 10.08 0 L 20.16 7.2 L 10.08 14.4 L 0 7.2 Z "/>
                                            </g>
                                        </g>
                                    </g>
                                </g>
                                <g transform="translate(64.92 54.4)">
                                    <g class="typst-group">
                                        <g>
                                            <g transform="translate(0 0)">
                                                <path class="typst-shape" fill="#2e86ab" fill-rule="nonzero" stroke="#000000" stroke-width="0.5" stroke-linecap="butt" stroke-linejoin="miter" stroke-miterlimit="4" d="M 10.08 0 L 20.16 7.2 L 10.08 14.4 L 0 7.2 Z "/>
                                            </g>
                                        </g>
                                    </g>
                                </g>
                                <g transform="translate(64.92 69.4)">
                                    <g class="typst-group">
                                        <g>
                                            <g transform="translate(0 0)">
                                                <path class="typst-shape" fill="#2e86ab" fill-rule="nonzero" stroke="#000000" stroke-width="0.5" stroke-linecap="butt" stroke-linejoin="miter" stroke-miterlimit="4" d="M 10.08 0 L 20.16 7.2 L 10.08 14.4 L 0 7.2 Z "/>
                                            </g>
                                        </g>
                                    </g>
                                </g>
                                <g transform="translate(64.92 91.8)">
                                    <g class="typst-group">
                                        <g>
                                            <g transform="translate(0 0)">
                                                <path class="typst-shape" fill="#e6e6e6" fill-rule="nonzero" stroke="#000000" stroke-width="0.5" stroke-linecap="butt" stroke-linejoin="miter" stroke-miterlimit="4" d="M 10.08 0 L 20.16 7.2 L 10.08 14.4 L 0 7.2 Z "/>
                                            </g>
                                        </g>
                                    </g>
                                </g>
                                <g transform="translate(0 36)">
                                    <path class="typst-shape" fill="#000000" fill-rule="nonzero" d="M 0 0 L 0 2.4 L 90 2.4 L 90 0 Z "/>
                                </g>
                            </g>
                        </g>
                    </g>
                </g>
            </g>
        </g>
    </g>
</svg>
